X: 19
T: The Eclipse
%R: jig
B: "Twenty Four Country Dances for the Year 1781", Thomas Skillern, ed. p.10 #1
F: http://www.vwml.org/browse/browse-collections-dance-tune-books/browse-skillerns1781#
Z: 2014 John Chambers <jc:trillian.mit.edu>
M: 6/8
L: 1/8
K: Bb
|:\
BAB F2F | B2F d2B | fgf b2f | dcB AGF |\
fdf ece | dfB AGF | fed cBA | B3 B,3 :|
|:\
fef B2B | cBc F3 | BAB G2G | d3 D3 |\
e2c d2B | c2A d2c | Bdg BcA | G3 G,3 |
BAB F2F | B2F d2B | fgf fdB | cdB AGF |\
DFB EGc | FAd GBe | dfd ecA | B3 B,3 :|
%%begintext align
%%   First and 2d Cu. pas Rigadoon and Right Hands
%% across .| the same and Left Hands across :| Cross
%% over two Cu. lead up and Cast off :|. Hands four
%% with the 3d Cu. & Right & Left with the top :|:
%%endtext

%%sep 1 1 500
%%sep 1 1 500
